X:264
T:Plane Tree, The
R:jig 32
C:Undine Hornby
B:English Choice, Nick Barber, pub mally.com
M:6/8
L:1/8
Q:1/4=140
K:Em
|:"Em"EGB EGB|"Am"cBA "G"B2B|
"C"cde "D"dcB|AGA "B"B2B|
"Em"EGB EGB|"Am"cBA "G"B2B|
"C"cde "D"dcB|"D"AGF "Em"E3:|
|:"C"efg f2e|"D"ded "G"B2B|
"C"cde "D"dcB|"D"AGA "Bm"B2B|
"C"efg f2e|"D"ded "G"B2B|
"C"cde "D"dcB|"B"AGF "Em"E3:|]

